X: 1
T: Under Influences
C: David A. Kaynor (summer 2016)
%D:2016
R: reel
Z: 2016 John Chambers <jc:trillian.mit.edu>
M: C|
L: 1/8
K: Ddor
|:\
"Dm"d2c2 A2G2 | FDDD A,DDD |\
"Dm"d2c2 A2G2 | "G"GDGA "A"A2Ac |\
"Dm"d2c2 A2G2 | FDDD A,DDF |
"G"GDDG GDDG | "A"AEGA A2Ac ::\
"Dm"dffe fdef | "G"gage "Dm"fdd2 |\
"G"gage "Dm"fddf | "G"gaag "A"a2Ac |
"Dm"dffe fdef | "G"gage fdfg |\
[1 "G"gage "Dm"fdAG | "A"Addc "Dm"d2 "A"Ac :|\
[2 "Dm"afge "G"fdcA | "A"Addc "Dm"d4 |]
